64x64/apps/AdobeXD.svg

<svg height="64" width="64" xmlns="http://www.w3.org/2000/svg"><path d="m4 56.2v2c0 1.55 1.25 2.8 2.8 2.8h50.4c1.55 0 2.8-1.25 2.8-2.8v-2c0 1.55-1.25 2.8-2.8 2.8h-50.4c-1.55 0-2.8-1.25-2.8-2.8z" opacity=".2"/><rect fill="#900d65" height="56" rx="2.8" width="56" x="4" y="4"/><path d="m6.8 4c-1.55 0-2.8 1.25-2.8 2.8v1.003c0-1.551 1.25-2.801 2.8-2.801h50.4c1.55 0 2.8 1.25 2.8 2.8v-1c0-1.552-1.25-2.802-2.8-2.802z" fill="#f4f4f7" opacity=".1"/><path d="m14 19 5.496 14-5.496 14h6l2.496-9 3.504 9h5l-5.504-14 6.504-14h-6l-3.504 9-2.496-9zm30 0v10c-8 0-8 9-8 9s0 9 7 9 7-2 7-2v-26zm-1 14h1v10h-1s-3 0-3-5 3-5 3-5z" opacity=".2"/><path d="m44 18v10c-8 0-8 9-8 9s0 9 7 9 7-2 7-2v-26zm-1 14h1v10h-1s-3 0-3-5 3-5 3-5zm-29 14h6l2.497-9 3.503 9h5l-5.503-14 6.503-14h-6l-3.503 9-2.497-9h-6l5.497 14z" fill="#f3bfe1"/></svg>

<svg xmlns="http://www.w3.org/2000/svg" height="64" width="64"><path style="opacity:.2" d="M4 56.2v2C4 59.75 5.25 61 6.8 61h50.4c1.55 0 2.8-1.25 2.8-2.8v-2c0 1.55-1.25 2.8-2.8 2.8H6.8C5.25 59 4 57.75 4 56.2z"/><rect style="fill:#900d65" rx="2.8" ry="2.8" height="56" width="56" y="4" x="4"/><path style="opacity:.1;fill:#f4f4f7" d="M6.8 4C5.25 4 4 5.25 4 6.8v1.003c0-1.551 1.25-2.801 2.8-2.801h50.4c1.55 0 2.8 1.25 2.8 2.8V6.802C60 5.25 58.75 4 57.2 4z"/><path style="opacity:.2" d="m14 19 5.496 14L14 47h6l2.496-9L26 47h5l-5.504-14L32 19h-6l-3.504 9L20 19zm30 0v10c-8 0-8 9-8 9s0 9 7 9 7-2 7-2V19zm-1 14h1v10h-1s-3 0-3-5 3-5 3-5z"/><path style="fill:#f3bfe1" d="M44 18v10c-8 0-8 9-8 9s0 9 7 9 7-2 7-2V18zm-1 14h1v10h-1s-3 0-3-5 3-5 3-5zM14 46h6l2.497-9L26 46h5l-5.503-14L32 18h-6l-3.503 9L20 18h-6l5.497 14z"/></svg>
